img/svg/lock.svg

<svg focusable="false" width="" height=""
    fill="" aria-hidden="true" viewBox="0 0 16 16">
    <path
        d="M11.8922 6.37672H10.1466V5.725C10.1466 4.63103 9.84397 2.79224 7.81897 2.79224C5.71638 2.79224 5.49138 4.84052 5.49138 5.725V6.37672H3.74569V5.725C3.74569 2.85431 5.34397 1 7.81897 1C10.294 1 11.8922 2.85431 11.8922 5.725V6.37672ZM8.98276 10.8276C8.98276 10.1681 8.45517 9.63276 7.81897 9.63276C7.18276 9.63276 6.65517 10.1681 6.65517 10.8276C6.65517 11.2776 6.88793 11.65 7.23707 11.8517V13.2095C7.23707 13.5353 7.50086 13.8147 7.81897 13.8147C8.13707 13.8147 8.40086 13.5431 8.40086 13.2095V11.8595C8.75 11.6578 8.98276 11.2776 8.98276 10.8276ZM13.6379 8.75862V14.2078C13.6379 15.1931 12.8543 16 11.8922 16H3.74569C2.78362 16 2 15.1931 2 14.2078L2 8.75862C2 7.77328 2.78362 6.96638 3.74569 6.96638H11.8922C12.8543 6.96638 13.6379 7.77328 13.6379 8.75862Z"
        fill="currentColor"></path>
</svg>

<svg aria-hidden="true" viewBox="0 0 16 16"><path d="M11.892 6.377h-1.745v-.652c0-1.094-.303-2.933-2.328-2.933-2.103 0-2.328 2.049-2.328 2.933v.652H3.746v-.652C3.746 2.855 5.344 1 7.819 1c2.475 0 4.073 1.854 4.073 4.725v.652zm-2.91 4.45c0-.659-.527-1.194-1.163-1.194s-1.164.535-1.164 1.195c0 .45.233.822.582 1.024v1.357c0 .326.264.606.582.606a.596.596 0 00.582-.605v-1.35c.349-.202.582-.582.582-1.032zm4.656-2.068v5.449c0 .985-.784 1.792-1.746 1.792H3.746C2.784 16 2 15.193 2 14.208v-5.45c0-.985.784-1.792 1.746-1.792h8.146c.962 0 1.746.807 1.746 1.793z" fill="currentColor"/></svg>
